X:1
T: Hazeldean
C:
R:Strathspey
Q: 128
K:A
M:4/4
L:1/16
|:a2|ec3 B3A A3c E3F|AA3 d3c B6 a2|ec3 B3A A3c E3F|Ac3 B3A A6 a2|
ec3 B3A A3c E3F|AA3 d3c B6 a2|ec3 B3A A3c E3F|Ac3 B3A A6c2|
d3c d3e f3e a3f|ec3 c3e f4 fga2|ec3 B3A A3c E3F|Ac3 B3A A6c2|
d3c d3e f3e a3f|ec3 c3e f4 fga2|ec3 B3A A3c E3F|Ac3 B3A A6:|
